media/icons/web.svg

<svg xmlns="http://www.w3.org/2000/svg" width="20" height="20"><path d="M19.764 12.13c.15-.696.236-1.408.236-2.13s-.085-1.433-.236-2.13h.093l-.43-1.21v-.003l-.215-.605h-.027C17.617 2.408 14.008 0 10 0 5.993 0 2.383 2.408.815 6.052H.788l-.214.606-.43 1.212h.094C.085 8.567 0 9.28 0 10c0 .722.085 1.433.237 2.13H.144l.43 1.213.214.605h.027C2.383 17.592 5.993 20 10 20c4.008 0 7.617-2.408 9.185-6.052h.027l.215-.604c0-.002 0-.005.002-.008l.427-1.206h-.093zM18.182 10c0 .725-.094 1.44-.28 2.13h-3.447c.068-.705.106-1.42.106-2.13s-.037-1.424-.105-2.13h3.447c.186.692.28 1.405.28 2.13zM10 18.182c-.784 0-1.816-1.572-2.363-4.233h4.726c-.548 2.66-1.58 4.232-2.363 4.232zM7.365 12.13c-.067-.667-.108-1.375-.108-2.13 0-.755.04-1.462.107-2.13h5.27c.066.667.107 1.375.107 2.13 0 .755-.04 1.463-.106 2.13h-5.27zM10 1.818c.784 0 1.815 1.573 2.363 4.234H7.637c.547-2.66 1.58-4.234 2.363-4.234zm7.168 4.234h-2.97c-.254-1.365-.642-2.624-1.16-3.636 1.737.697 3.21 1.97 4.13 3.636zM6.962 2.416C6.442 3.43 6.056 4.688 5.8 6.052H2.832c.92-1.666 2.393-2.938 4.13-3.636zM1.818 10c0-.724.094-1.438.28-2.13h3.446c-.066.706-.105 1.42-.105 2.13s.038 1.425.105 2.13H2.1c-.188-.692-.282-1.405-.282-2.13zm1.014 3.948H5.8c.255 1.364.643 2.623 1.162 3.636-1.737-.698-3.21-1.97-4.13-3.636zm10.206 3.636c.52-1.013.906-2.27 1.16-3.636h2.97c-.92 1.666-2.393 2.94-4.13 3.636z"/></svg>

<?xml version="1.0" encoding="UTF-8" standalone="no"?>
<!-- Created with Inkscape (http://www.inkscape.org/) -->

<svg
   xmlns:dc="http://purl.org/dc/elements/1.1/"
   xmlns:cc="http://creativecommons.org/ns#"
   xmlns:rdf="http://www.w3.org/1999/02/22-rdf-syntax-ns#"
   xmlns:svg="http://www.w3.org/2000/svg"
   xmlns="http://www.w3.org/2000/svg"
   version="1.1"
   width="20"
   height="20"
   viewBox="0 0 20 20"
   id="Capa_1"
   xml:space="preserve"><metadata
   id="metadata9"><rdf:RDF><cc:Work
       rdf:about=""><dc:format>image/svg+xml</dc:format><dc:type
         rdf:resource="http://purl.org/dc/dcmitype/StillImage" /><dc:title></dc:title></cc:Work></rdf:RDF></metadata><defs
   id="defs7" />
<path
   d="M 19.764,12.13 C 19.915,11.434 20,10.722 20,10 20,9.278 19.915,8.567 19.764,7.87 h 0.093 L 19.428,6.661 c 0,-10e-4 -0.001,-0.003 -0.001,-0.004 L 19.212,6.052 H 19.185 C 17.617,2.408 14.008,0 10,0 5.993,0 2.383,2.408 0.815,6.052 H 0.788 L 0.574,6.658 0.144,7.87 H 0.238 C 0.085,8.567 0,9.279 0,10 c 0,0.722 0.085,1.433 0.237,2.13 H 0.144 l 0.43,1.213 0.214,0.605 H 0.815 C 2.383,17.592 5.993,20 10,20 c 4.008,0 7.617,-2.408 9.185,-6.052 h 0.027 l 0.215,-0.604 c 0.001,-0.002 0.001,-0.005 0.002,-0.008 L 19.857,12.13 H 19.764 z M 18.182,10 c 0,0.725 -0.094,1.439 -0.28,2.13 h -3.447 c 0.068,-0.705 0.106,-1.42 0.106,-2.13 0,-0.71 -0.038,-1.424 -0.106,-2.13 h 3.447 c 0.186,0.692 0.28,1.405 0.28,2.13 z M 10,18.182 c -0.784,0 -1.816,-1.572 -2.363,-4.233 h 4.726 C 11.815,16.609 10.784,18.182 10,18.182 z M 7.365,12.13 C 7.298,11.463 7.257,10.755 7.257,10 7.257,9.245 7.298,8.538 7.364,7.87 h 5.27 c 0.066,0.667 0.107,1.375 0.107,2.13 0,0.755 -0.041,1.463 -0.107,2.13 H 7.365 z M 10,1.818 c 0.784,0 1.815,1.573 2.363,4.234 H 7.637 C 8.184,3.392 9.216,1.818 10,1.818 z m 7.168,4.234 H 14.199 C 13.944,4.687 13.556,3.428 13.038,2.416 c 1.737,0.697 3.211,1.97 4.13,3.636 z M 6.962,2.416 C 6.443,3.429 6.056,4.688 5.8,6.052 H 2.832 C 3.751,4.386 5.225,3.114 6.962,2.416 z M 1.818,10 c 0,-0.724 0.094,-1.438 0.28,-2.13 H 5.544 C 5.478,8.576 5.439,9.291 5.439,10 c 0,0.709 0.039,1.425 0.106,2.13 H 2.099 C 1.912,11.438 1.818,10.725 1.818,10 z m 1.014,3.948 H 5.8 c 0.255,1.364 0.643,2.623 1.162,3.636 -1.737,-0.698 -3.211,-1.97 -4.13,-3.636 z m 10.206,3.636 c 0.519,-1.013 0.906,-2.271 1.161,-3.636 h 2.969 c -0.919,1.666 -2.393,2.939 -4.13,3.636 z"
   id="path3" />
</svg>
